images/Logo.svg

<svg width="67" height="56" viewBox="0 0 67 56" fill="none" xmlns="http://www.w3.org/2000/svg">
<g clip-path="url(#clip0_1_6)">
<path d="M38.1045 16.87L36.8508 15.87C36.6548 15.7043 36.4042 15.626 36.1533 15.6522C35.9024 15.6784 35.6716 15.807 35.5109 16.01L18.16 36.83L18.4279 37.14L22.725 33C22.5818 32.9398 22.4633 32.8291 22.3901 32.6871C22.3169 32.5451 22.2937 32.3807 22.3244 32.2227C22.3551 32.0646 22.4378 31.9227 22.5582 31.8218C22.6786 31.7208 22.8291 31.6671 22.9834 31.67C23.1226 31.67 23.2581 31.7166 23.3701 31.803C23.482 31.8894 23.5645 32.011 23.6055 32.15L29.2711 26.66C29.3579 26.587 29.4659 26.5472 29.5774 26.5472C29.6888 26.5472 29.7968 26.587 29.8836 26.66L30.1707 26.88C30.2679 26.9528 30.3875 26.9849 30.5062 26.9701C30.6248 26.9553 30.7339 26.8946 30.8119 26.8L38.2193 18.12C38.2981 18.0339 38.3581 17.931 38.3954 17.8184C38.4327 17.7058 38.4464 17.5862 38.4355 17.4676C38.4246 17.349 38.3894 17.2343 38.3323 17.1312C38.2752 17.028 38.1975 16.939 38.1045 16.87V16.87Z" fill="#303030"/>
<path d="M46.2584 22.73C42.4613 25.553 38.2077 27.6364 33.7021 28.88C29.2303 30.0683 24.6546 30.7786 20.0453 31C20.1381 31.7102 20.305 32.4077 20.5429 33.08C23.1461 35.54 42.7461 31.34 46.5742 26.48C47.3877 25.47 46.2584 22.73 46.2584 22.73ZM22.9834 33C22.8547 33 22.7288 32.9601 22.6218 32.8854C22.5148 32.8107 22.4314 32.7045 22.3821 32.5802C22.3329 32.456 22.32 32.3192 22.3451 32.1873C22.3702 32.0554 22.4322 31.9342 22.5232 31.8391C22.6142 31.744 22.7302 31.6793 22.8564 31.653C22.9827 31.6268 23.1135 31.6403 23.2324 31.6917C23.3513 31.7432 23.453 31.8304 23.5245 31.9422C23.596 32.054 23.6342 32.1855 23.6342 32.32C23.6354 32.4097 23.6195 32.4987 23.5872 32.5818C23.555 32.6649 23.5071 32.7404 23.4464 32.8038C23.3857 32.8672 23.3135 32.9173 23.2339 32.951C23.1544 32.9847 23.0692 33.0013 22.9834 33V33Z" fill="#303030"/>
<path d="M4.4655 21.2899L4.61862 20.5999L7.1069 21.1899C7.31219 21.5861 7.43912 22.0214 7.48014 22.4699C7.52764 22.945 7.49852 23.425 7.39401 23.8899C7.27013 24.5352 6.98632 25.1352 6.57096 25.6299C6.17579 26.097 5.66626 26.4428 5.09714 26.6299C4.51057 26.8189 3.88669 26.8431 3.28835 26.6999C2.68869 26.5646 2.13595 26.2603 1.69011 25.8199C1.25109 25.3969 0.935836 24.8526 0.780926 24.2499C0.609076 23.5954 0.609076 22.9045 0.780926 22.2499C0.883785 21.76 1.06844 21.2929 1.32643 20.8699C1.57061 20.4853 1.89859 20.1665 2.28346 19.9399L2.628 20.4899C2.29811 20.7016 2.01494 20.9839 1.79718 21.3183C1.57942 21.6527 1.43202 22.0316 1.36471 22.4299C1.24603 22.9473 1.25591 23.4877 1.39343 23.9999C1.52202 24.4863 1.7771 24.9259 2.13034 25.2699C2.49342 25.6367 2.94768 25.8896 3.44147 25.9999C3.9203 26.1404 4.4269 26.1404 4.90573 25.9999C5.36442 25.8417 5.77641 25.5628 6.10202 25.1899C6.43664 24.7873 6.66724 24.3019 6.77194 23.7799C6.9294 23.1468 6.88917 22.4776 6.6571 21.8699L4.4655 21.2899Z" fill="#303030"/>
<path d="M9.88166 14.9999L7.65178 18.1099L8.60881 19.8999L8.16858 20.5199L4.62756 13.7699L5.03909 13.1799L12.2455 14.7999L11.7957 15.4199L9.88166 14.9999ZM9.25002 14.8399L5.4219 13.9399L7.33596 17.5299L9.25002 14.8399Z" fill="#303030"/>
<path d="M9.25 8.5501L9.82422 8.1001L13.4705 13.2001L16.4756 10.8501L16.8393 11.3601L13.2695 14.1501L9.25 8.5501Z" fill="#303030"/>
<path d="M15.2793 4.38008L15.9205 4.08008L18.4471 9.86008L21.8637 8.24008L22.1125 8.82008L18.0547 10.7501L15.2793 4.38008Z" fill="#303030"/>
<path d="M27.893 6.68003L28.0365 7.31003L23.4236 8.44003L21.8924 1.62003L26.3713 0.530029L26.5053 1.15003L22.6772 2.08003L23.2227 4.50003L26.5914 3.67003L26.735 4.29003L23.3567 5.11003L23.9309 7.64003L27.893 6.68003Z" fill="#303030"/>
<path d="M34.4678 6.92997L32.8695 4.72997C32.691 4.74029 32.5121 4.74029 32.3336 4.72997L30.5344 4.78997L30.6014 7.00997H29.8932L29.673 0.00996866L32.2187 -3.1339e-05C32.9385 -0.0694894 33.6583 0.132721 34.2476 0.569969C34.496 0.778962 34.6957 1.04418 34.8317 1.3456C34.9676 1.64702 35.0363 1.97678 35.0324 2.30997C35.0603 2.80416 34.9363 3.29473 34.6783 3.70997C34.4033 4.10853 34.0147 4.40603 33.5682 4.55997L35.243 6.89997L34.4678 6.92997ZM33.7978 3.63997C33.9699 3.47531 34.1033 3.27154 34.188 3.04439C34.2726 2.81725 34.3061 2.57281 34.2859 2.32997C34.2909 2.08584 34.2426 1.84374 34.1448 1.62198C34.0469 1.40022 33.9021 1.20461 33.7213 1.04997C33.2802 0.737448 32.7497 0.592707 32.2187 0.639969L30.4004 0.709969L30.5152 4.20997L32.2953 4.14997C32.8381 4.17096 33.3705 3.99026 33.7978 3.63997Z" fill="#303030"/>
<path d="M39.5305 5.07L39.1859 7.46L38.4873 7.35L38.8414 5L36.8604 0L37.6068 0.12L39.3008 4.38L42.1719 0.85L42.8418 1L39.5305 5.07Z" fill="#303030"/>
<path d="M48.9955 4.64993L49.8281 5.77993L49.4645 6.07993L48.6318 4.91993L48.1055 6.22993L47.7035 6.04993L48.2395 4.73993L46.8613 4.92993V4.44993L48.2203 4.28993L47.3781 3.15993L47.7514 2.85993L48.4883 3.99993L49.0051 2.67993L49.4166 2.85993L48.9285 4.19993L50.3066 3.99993V4.48993L48.9955 4.64993Z" fill="#303030"/>
<path d="M52.192 12.7099C51.966 12.3458 51.825 11.9314 51.7805 11.4999L52.3451 11.2399C52.3875 11.6363 52.5115 12.0184 52.7088 12.3599C52.9226 12.7428 53.2015 13.0817 53.5318 13.3599C53.8729 13.7012 54.3082 13.9216 54.776 13.9899C54.945 14.0063 55.1152 13.9793 55.272 13.9114C55.4288 13.8434 55.5673 13.7365 55.6756 13.5999C55.755 13.5084 55.8155 13.4008 55.8533 13.2838C55.8912 13.1669 55.9056 13.043 55.8957 12.9199C55.864 12.6762 55.7859 12.4416 55.666 12.2299C55.4861 11.923 55.2913 11.6259 55.0822 11.3399C54.8274 10.9911 54.5971 10.6235 54.3932 10.2399C54.2372 9.95284 54.1518 9.6299 54.1443 9.29992C54.1437 8.92934 54.277 8.57218 54.5176 8.29992C54.7261 8.03604 55.0013 7.83857 55.3119 7.72992C55.6589 7.62518 56.0272 7.62518 56.3742 7.72992C56.8213 7.88269 57.2346 8.12751 57.5896 8.44992C57.8843 8.70599 58.145 9.00192 58.3648 9.32992C58.5681 9.63408 58.7203 9.97227 58.8146 10.3299L58.2691 10.6299C58.174 10.2966 58.0321 9.97979 57.848 9.68992C57.6647 9.43106 57.4491 9.199 57.2068 8.99992C56.8708 8.66016 56.4368 8.44575 55.9723 8.38992C55.8015 8.375 55.6299 8.40466 55.4729 8.47623C55.3159 8.5478 55.1783 8.65903 55.0726 8.79992C54.9912 8.89 54.9294 8.99741 54.8914 9.11477C54.8534 9.23214 54.8402 9.35669 54.8525 9.47992C54.8749 9.73209 54.9536 9.97526 55.0822 10.1899C55.2162 10.4199 55.4076 10.7199 55.666 11.0799C55.9222 11.4207 56.1525 11.7818 56.3551 12.1599C56.5143 12.4461 56.6031 12.7691 56.6135 13.0999C56.6141 13.4705 56.4808 13.8277 56.2402 14.0999C56.0309 14.3674 55.7516 14.5655 55.4363 14.6699C55.0899 14.7792 54.7204 14.7792 54.374 14.6699C53.9238 14.5176 53.5074 14.2728 53.149 13.9499C52.7627 13.5986 52.4387 13.1788 52.192 12.7099V12.7099Z" fill="#303030"/>
<path d="M61.8197 14.17L60.4703 12.17L60.968 11.8L64.0783 16.44L63.5807 16.81L62.2313 14.81L57.2356 18.46L56.8336 17.85L61.8197 14.17Z" fill="#303030"/>
<path d="M59.676 22.39C59.8468 21.7856 60.1787 21.2445 60.633 20.83C61.0773 20.4141 61.6187 20.1279 62.2025 20C62.7977 19.8572 63.4184 19.8814 64.0017 20.07C64.5648 20.2645 65.0695 20.6092 65.466 21.07C65.8783 21.5656 66.1588 22.1656 66.2795 22.81C66.438 23.4426 66.438 24.1073 66.2795 24.74C66.1039 25.3421 65.7727 25.8819 65.3224 26.3C64.8658 26.727 64.3111 27.0233 63.7124 27.16C63.1137 27.2967 62.4913 27.2691 61.9058 27.08C61.3385 26.8949 60.8315 26.5487 60.4416 26.08C60.0312 25.587 59.7508 24.9907 59.6281 24.35C59.4819 23.7033 59.4984 23.028 59.676 22.39V22.39ZM60.9297 25.57C61.2492 25.9502 61.6633 26.2306 62.1259 26.38C62.6029 26.5245 63.1069 26.5417 63.5918 26.4298C64.0767 26.318 64.5269 26.0808 64.9013 25.74C65.2546 25.4004 65.5154 24.9691 65.6574 24.49C65.7908 23.9841 65.8039 23.4517 65.6955 22.9393C65.5871 22.4269 65.3604 21.95 65.0353 21.55C64.7018 21.1679 64.275 20.8879 63.8008 20.74C63.3178 20.606 62.8098 20.606 62.3269 20.74C61.8397 20.8377 61.3886 21.0768 61.0254 21.43C60.6689 21.7708 60.4076 22.2062 60.2693 22.69C60.1394 23.1977 60.1394 23.7322 60.2693 24.24C60.3741 24.7361 60.6018 25.1947 60.9297 25.57V25.57Z" fill="#303030"/>
<path d="M58.9486 33.9999L61.4273 32.9999C61.4273 32.8199 61.4848 32.6399 61.5326 32.4499L62.0016 30.6399L59.9726 30.0899L60.1545 29.3799L66.624 31.1899L65.9732 33.7199C65.8266 34.4581 65.433 35.1176 64.8631 35.5799C64.6012 35.7699 64.3008 35.8941 63.9853 35.9427C63.6699 35.9912 63.3479 35.9629 63.0447 35.8599C62.5829 35.7552 62.169 35.4891 61.8715 35.1055C61.5739 34.7218 61.4105 34.2437 61.4082 33.7499L58.7668 34.7499L58.9486 33.9999ZM62.1547 34.2799C62.2668 34.4924 62.4189 34.679 62.6018 34.8286C62.7847 34.9781 62.9946 35.0875 63.219 35.1501C63.4434 35.2126 63.6776 35.2272 63.9075 35.1928C64.1374 35.1584 64.3583 35.0758 64.5568 34.9499C64.9792 34.5954 65.2675 34.0957 65.3703 33.5399L65.8297 31.7399L62.5853 30.8299L62.126 32.6299C61.9494 33.1663 61.9596 33.7506 62.1547 34.2799V34.2799Z" fill="#303030"/>
<path d="M55.5129 40.4401L55.0248 40.0501L57.8959 36.1001L63.2361 40.3301L60.4607 44.1601L59.9726 43.7701L62.3174 40.5401L60.4033 39.0301L58.3074 41.9201L57.8289 41.5401L59.9726 38.6501L57.9916 37.0801L55.5129 40.4401Z" fill="#303030"/>
<path d="M53.2735 48.4099L51.9049 48.4899V48.0099L53.2735 47.9999L52.5365 46.8099L52.9098 46.5599L53.6371 47.7599L54.2305 46.4199L54.642 46.6499L53.9912 47.9099L55.3598 47.8299V48.3199H53.9721L54.709 49.5099L54.3358 49.7599L53.6084 48.5599L52.9768 49.8599L52.5748 49.6199L53.2735 48.4099Z" fill="#303030"/>
<path d="M40.832 47.6099L41.99 48.2799C42.1842 47.8902 42.4551 47.5479 42.785 47.2756C43.115 47.0033 43.4963 46.8071 43.9041 46.6999C44.2844 46.576 44.6845 46.5318 45.0812 46.5699C45.4255 46.5975 45.7562 46.7219 46.0383 46.9299C46.2933 47.1308 46.4809 47.4108 46.5742 47.7299C46.6896 48.1247 46.6692 48.5491 46.5168 48.9299C46.2766 49.4473 45.9529 49.9175 45.5598 50.3199C45.8753 50.4971 46.1679 50.7155 46.4306 50.9699C46.6111 51.1648 46.7455 51.4011 46.823 51.6599C46.8721 51.8617 46.8751 52.0726 46.8319 52.2759C46.7887 52.4791 46.7004 52.6688 46.5742 52.8299C46.3187 53.2146 45.9375 53.4884 45.5023 53.5999C45.1202 53.7522 44.6978 53.7522 44.3156 53.5999C44.1457 53.5235 43.995 53.407 43.8755 53.2595C43.7559 53.1121 43.6707 52.9376 43.6265 52.7499C43.5262 52.4198 43.5502 52.0622 43.6935 51.7499C43.9132 51.2953 44.2007 50.8801 44.5453 50.5199L42.2389 49.1799C42.1508 49.6508 42.1315 50.1329 42.1814 50.6099H41.5976C41.5583 50.0225 41.6232 49.4326 41.789 48.8699L40.5832 48.1699L40.832 47.6099ZM42.4973 48.6099L45.0334 50.0799C45.3658 49.7483 45.6409 49.3592 45.8469 48.9299C45.952 48.64 45.952 48.3199 45.8469 48.0299C45.8035 47.8567 45.7195 47.6974 45.6026 47.5665C45.4856 47.4356 45.3394 47.3371 45.1769 47.2799C44.7796 47.1397 44.3492 47.1397 43.9519 47.2799C43.6273 47.3694 43.3253 47.5322 43.0674 47.7568C42.8094 47.9814 42.6018 48.2624 42.459 48.5799L42.4973 48.6099ZM46.0957 52.6099C46.1582 52.4994 46.1974 52.3762 46.2106 52.2486C46.2238 52.1209 46.2107 51.9918 46.1723 51.8699C46.1136 51.6724 46.0083 51.4936 45.866 51.3499C45.6224 51.1352 45.3558 50.9506 45.0717 50.7999C44.7815 51.0997 44.5276 51.4356 44.3156 51.7999C44.1999 52.0271 44.1725 52.2921 44.2391 52.5399C44.2694 52.6543 44.3226 52.7607 44.3952 52.8521C44.4678 52.9434 44.5581 53.0177 44.6601 53.0699C44.9038 53.1659 45.1725 53.1659 45.4162 53.0699C45.6764 52.9974 45.9036 52.8309 46.0574 52.5999L46.0957 52.6099Z" fill="#303030"/>
<path d="M29.1658 55.3201L29.2998 48.3201H29.9793L29.874 53.9201L32.592 49.2601H32.927L35.4727 54.0001L35.5684 48.4301H36.2479L36.1235 55.4301H35.5397L32.726 50.2001L29.7496 55.3301L29.1658 55.3201Z" fill="#303030"/>
<path d="M25.8353 48.0001C26.273 48.4359 26.5861 48.9902 26.7399 49.6012C26.8937 50.2121 26.882 50.8557 26.7062 51.4601C26.549 52.079 26.2349 52.6421 25.797 53.0901C25.3715 53.5271 24.838 53.8318 24.2562 53.9701C23.6425 54.1148 23.0036 54.0941 22.3996 53.9101C21.7976 53.7565 21.2438 53.443 20.7918 53.0001C20.3607 52.5698 20.0525 52.0228 19.9017 51.4201C19.7546 50.7971 19.7654 50.1447 19.9333 49.5274C20.1011 48.9101 20.4201 48.3492 20.8588 47.9001C21.2767 47.4642 21.7989 47.1534 22.3709 47.0001C22.9814 46.8558 23.6171 46.8765 24.2179 47.0601C24.8261 47.2212 25.3836 47.5452 25.8353 48.0001ZM22.5719 47.6501C22.1037 47.764 21.6758 48.0135 21.3373 48.3701C20.9848 48.737 20.7335 49.1965 20.6099 49.7001C20.4765 50.2006 20.4765 50.7296 20.6099 51.2301C20.7228 51.717 20.965 52.1607 21.3086 52.5101C21.6689 52.8783 22.1138 53.1435 22.6006 53.2801C23.0873 53.4096 23.5973 53.4096 24.084 53.2801C24.5525 53.1597 24.9819 52.9112 25.3281 52.5601C25.6788 52.1917 25.9297 51.7328 26.0554 51.2301C26.1892 50.7263 26.1892 50.1939 26.0554 49.6901C25.933 49.205 25.6884 48.7631 25.3472 48.4101C24.985 48.0414 24.536 47.7792 24.0457 47.6501C23.5634 47.5108 23.0541 47.5108 22.5719 47.6501Z" fill="#303030"/>
<path d="M15.3271 43L15.5855 45.75C15.7497 45.8233 15.9095 45.9068 16.064 46L17.624 46.94L18.6767 45L19.2988 45.37L15.9492 51.4L13.7672 50.09C13.1222 49.7515 12.6134 49.1844 12.3316 48.49C12.2276 48.1772 12.1925 47.8439 12.2289 47.5149C12.2654 47.1859 12.3725 46.8698 12.5422 46.59C12.7646 46.1518 13.1173 45.8008 13.547 45.59C13.9835 45.4011 14.4663 45.3626 14.9252 45.48L14.6476 42.54L15.3271 43ZM14.2361 46.16C14.0113 46.219 13.8002 46.3247 13.6155 46.4708C13.4307 46.617 13.2761 46.8006 13.1608 47.0107C13.0455 47.2207 12.972 47.4529 12.9447 47.6934C12.9173 47.9338 12.9366 48.1776 13.0015 48.41C13.2259 48.9276 13.6148 49.3481 14.1021 49.6L15.6429 50.53L17.3177 47.53L15.7769 46.6C15.3341 46.2533 14.7888 46.0799 14.2361 46.11V46.16Z" fill="#303030"/>
<path d="M9.66152 38.3101L10.0922 37.8601L13.3939 41.4101L8.60879 46.2901L5.42188 42.8501L5.86211 42.4001L8.57051 45.3101L10.207 43.5801L7.83359 41.0001L8.29297 40.5401L10.7143 43.1401L12.4943 41.3301L9.66152 38.3101Z" fill="#303030"/>
<path d="M2.55079 34.38L2.78048 33L3.23029 33.07L2.97189 34.49L4.24474 34L4.39786 34.44L3.10587 34.9L4.16818 35.84L3.86193 36.2L2.8379 35.2L2.59865 36.62L2.13927 36.53L2.40724 35.11L1.12482 35.59L0.981262 35.2L2.26368 34.73L1.20138 33.8L1.5172 33.44L2.55079 34.38Z" fill="#303030"/>
</g>
<defs>
<clipPath id="clip0_1_6">
<rect width="65.9682" height="55.46" fill="white" transform="translate(0.636719)"/>
</clipPath>
</defs>
</svg>

<svg width="67" height="56" fill="none" xmlns="http://www.w3.org/2000/svg"><g clip-path="url(#a)" fill="#303030"><path d="m38.105 16.87-1.254-1a.93.93 0 0 0-1.34.14L18.16 36.83l.268.31L22.725 33a.671.671 0 0 1-.335-.313.717.717 0 0 1-.066-.464c.031-.158.114-.3.234-.401a.642.642 0 0 1 .425-.152c.14 0 .275.047.387.133a.681.681 0 0 1 .235.347l5.666-5.49a.475.475 0 0 1 .613 0l.287.22a.463.463 0 0 0 .64-.08l7.408-8.68a.865.865 0 0 0 .113-.989.818.818 0 0 0-.227-.261Z"/><path d="M46.258 22.73a37.988 37.988 0 0 1-12.556 6.15A65.38 65.38 0 0 1 20.045 31c.093.71.26 1.408.498 2.08 2.603 2.46 22.203-1.74 26.031-6.6.814-1.01-.316-3.75-.316-3.75ZM22.983 33a.631.631 0 0 1-.361-.115.675.675 0 0 1-.24-.305.709.709 0 0 1 .141-.74.626.626 0 0 1 .71-.147c.118.05.22.137.291.25.072.111.11.242.11.377a.697.697 0 0 1-.188.484.64.64 0 0 1-.463.196ZM4.465 21.29l.154-.69 2.488.59c.205.396.332.831.373 1.28.048.475.019.955-.086 1.42a3.828 3.828 0 0 1-.823 1.74 3.272 3.272 0 0 1-1.474 1 3.348 3.348 0 0 1-1.809.07 3.314 3.314 0 0 1-1.598-.88 3.33 3.33 0 0 1-.91-1.57 3.944 3.944 0 0 1 0-2c.104-.49.288-.957.546-1.38.245-.385.573-.704.957-.93l.345.55c-.33.212-.613.494-.83.828a2.933 2.933 0 0 0-.433 1.112A3.255 3.255 0 0 0 1.393 24c.129.486.384.926.737 1.27.363.367.818.62 1.311.73.48.14.986.14 1.465 0 .458-.158.87-.437 1.196-.81.335-.403.565-.888.67-1.41a3.2 3.2 0 0 0-.115-1.91l-2.192-.58ZM9.882 15l-2.23 3.11.957 1.79-.44.62-3.541-6.75.411-.59 7.207 1.62-.45.62L9.882 15Zm-.632-.16-3.828-.9 1.914 3.59 1.914-2.69ZM9.25 8.55l.574-.45 3.646 5.1 3.006-2.35.363.51-3.57 2.79-4.019-5.6ZM15.28 4.38l.64-.3 2.527 5.78 3.417-1.62.248.58-4.057 1.93-2.776-6.37ZM27.893 6.68l.143.63-4.612 1.13-1.532-6.82 4.48-1.09.133.62-3.828.93.546 2.42 3.368-.83.144.62-3.378.82.574 2.53 3.962-.96ZM34.468 6.93l-1.599-2.2c-.178.01-.357.01-.535 0l-1.8.06.067 2.22h-.708l-.22-7L32.219 0c.72-.07 1.44.133 2.029.57.248.209.448.474.584.776.136.301.204.63.2.964a2.4 2.4 0 0 1-.354 1.4 2.239 2.239 0 0 1-1.11.85l1.675 2.34-.775.03Zm-.67-3.29c.172-.165.305-.368.39-.596.085-.227.118-.471.098-.714a1.671 1.671 0 0 0-.141-.708 1.604 1.604 0 0 0-.424-.572A2.25 2.25 0 0 0 32.22.64L30.4.71l.115 3.5 1.78-.06a2.232 2.232 0 0 0 1.503-.51ZM39.53 5.07l-.344 2.39-.699-.11.354-2.35-1.98-5 .746.12L39.3 4.38 42.17.85l.67.15-3.31 4.07ZM48.995 4.65l.833 1.13-.364.3-.832-1.16-.526 1.31-.403-.18.536-1.31-1.378.19v-.48l1.36-.16-.843-1.13.373-.3.737 1.14.517-1.32.412.18-.489 1.34 1.379-.2v.49l-1.312.16ZM52.192 12.71a2.85 2.85 0 0 1-.411-1.21l.564-.26c.043.396.166.778.364 1.12.214.383.492.722.823 1 .34.341.776.562 1.244.63.169.016.34-.01.496-.079.157-.068.295-.175.404-.311a.937.937 0 0 0 .22-.68 1.897 1.897 0 0 0-.23-.69c-.18-.307-.375-.604-.584-.89a9.127 9.127 0 0 1-.689-1.1 2.068 2.068 0 0 1-.249-.94c0-.37.133-.728.374-1 .208-.264.483-.461.794-.57a1.835 1.835 0 0 1 1.062 0c.447.153.86.398 1.216.72.294.256.555.552.775.88.203.304.355.642.45 1l-.546.3a3.591 3.591 0 0 0-.421-.94 3.54 3.54 0 0 0-.641-.69 2.087 2.087 0 0 0-1.235-.61.994.994 0 0 0-.5.086 1.041 1.041 0 0 0-.4.324.897.897 0 0 0-.22.68c.023.252.102.495.23.71.134.23.326.53.584.89.256.34.487.702.69 1.08.158.286.247.61.258.94 0 .37-.133.728-.374 1-.21.267-.488.466-.804.57-.346.11-.716.11-1.062 0a3.513 3.513 0 0 1-1.225-.72 4.519 4.519 0 0 1-.957-1.24ZM61.82 14.17l-1.35-2 .498-.37 3.11 4.64-.497.37-1.35-2-4.995 3.65-.402-.61 4.986-3.68ZM59.676 22.39c.17-.604.503-1.146.957-1.56a3.345 3.345 0 0 1 1.57-.83 3.321 3.321 0 0 1 1.799.07c.563.195 1.068.54 1.464 1a3.82 3.82 0 0 1 .814 1.74 3.976 3.976 0 0 1 0 1.93 3.499 3.499 0 0 1-2.567 2.42 3.404 3.404 0 0 1-1.807-.08 3.198 3.198 0 0 1-1.464-1 3.83 3.83 0 0 1-.814-1.73 4.016 4.016 0 0 1 .048-1.96Zm1.254 3.18c.32.38.733.66 1.196.81.477.145.98.162 1.466.05a2.921 2.921 0 0 0 1.31-.69c.353-.34.613-.77.755-1.25a3.361 3.361 0 0 0 .038-1.55 3.278 3.278 0 0 0-.66-1.39 2.713 2.713 0 0 0-1.234-.81 2.752 2.752 0 0 0-1.474 0 2.602 2.602 0 0 0-1.302.69 2.81 2.81 0 0 0-.756 1.26 3.131 3.131 0 0 0 0 1.55c.105.496.333.955.66 1.33ZM58.949 34l2.478-1c0-.18.058-.36.106-.55l.469-1.81-2.03-.55.182-.71 6.47 1.81-.65 2.53a3.192 3.192 0 0 1-1.11 1.86c-.263.19-.563.314-.879.363-.315.048-.637.02-.94-.083a2.066 2.066 0 0 1-1.174-.755 2.23 2.23 0 0 1-.463-1.355l-2.641 1 .182-.75Zm3.206.28c.112.212.264.399.447.549.183.15.393.258.617.321a1.653 1.653 0 0 0 1.338-.2c.422-.355.71-.854.813-1.41l.46-1.8-3.245-.91-.459 1.8a2.511 2.511 0 0 0 .029 1.65ZM55.513 40.44l-.488-.39 2.87-3.95 5.341 4.23-2.775 3.83-.488-.39 2.344-3.23-1.914-1.51-2.096 2.89-.478-.38 2.144-2.89-1.981-1.57-2.48 3.36ZM53.273 48.41l-1.368.08v-.48l1.368-.01-.737-1.19.374-.25.727 1.2.593-1.34.412.23-.65 1.26 1.368-.08v.49h-1.388l.737 1.19-.373.25-.728-1.2-.631 1.3-.402-.24.698-1.21ZM40.832 47.61l1.158.67c.194-.39.465-.732.795-1.004.33-.273.711-.469 1.12-.576.38-.124.78-.168 1.176-.13.344.027.675.152.957.36.255.2.443.48.536.8.116.395.095.82-.057 1.2-.24.517-.564.987-.957 1.39.315.177.608.395.87.65.181.195.316.431.393.69a1.388 1.388 0 0 1-.249 1.17 1.838 1.838 0 0 1-1.072.77 1.598 1.598 0 0 1-1.186 0 1.201 1.201 0 0 1-.44-.34 1.271 1.271 0 0 1-.25-.51c-.1-.33-.076-.688.068-1a4.8 4.8 0 0 1 .851-1.23l-2.306-1.34c-.088.47-.107.953-.058 1.43h-.583a4.983 4.983 0 0 1 .191-1.74l-1.206-.7.249-.56Zm1.665 1 2.536 1.47c.333-.332.608-.72.814-1.15.105-.29.105-.61 0-.9a1.095 1.095 0 0 0-.244-.464 1.03 1.03 0 0 0-.426-.286 1.836 1.836 0 0 0-1.225 0c-.325.09-.627.252-.885.477a2.39 2.39 0 0 0-.608.823l.038.03Zm3.599 4a.928.928 0 0 0 .076-.74 1.24 1.24 0 0 0-.306-.52c-.244-.215-.51-.4-.794-.55-.29.3-.544.636-.756 1a1.04 1.04 0 0 0-.077.74c.03.114.084.22.156.312a.811.811 0 0 0 .265.218c.244.096.513.096.756 0a1.14 1.14 0 0 0 .641-.47l.039.01ZM29.166 55.32l.134-7h.68l-.106 5.6 2.718-4.66h.335L35.473 54l.095-5.57h.68l-.124 7h-.584l-2.814-5.23-2.976 5.13-.584-.01ZM25.835 48c.438.436.751.99.905 1.601.154.611.142 1.255-.034 1.86a3.597 3.597 0 0 1-.909 1.63 3.178 3.178 0 0 1-1.54.88 3.56 3.56 0 0 1-1.857-.06 3.555 3.555 0 0 1-1.608-.91 3.395 3.395 0 0 1-.89-1.58 3.85 3.85 0 0 1 .031-1.894 3.726 3.726 0 0 1 .926-1.627 3.27 3.27 0 0 1 1.512-.9 3.532 3.532 0 0 1 1.847.06 3.569 3.569 0 0 1 1.617.94Zm-3.263-.35a2.527 2.527 0 0 0-1.235.72 2.925 2.925 0 0 0-.727 1.33c-.133.5-.133 1.03 0 1.53.113.487.355.93.699 1.28.36.368.805.634 1.292.77.486.13.996.13 1.483 0 .468-.12.898-.369 1.244-.72.35-.368.602-.827.727-1.33a3.004 3.004 0 0 0 0-1.54 2.84 2.84 0 0 0-.708-1.28 2.84 2.84 0 0 0-1.301-.76 2.651 2.651 0 0 0-1.474 0ZM15.327 43l.258 2.75c.165.073.324.157.479.25l1.56.94L18.677 45l.622.37-3.35 6.03-2.182-1.31a3.127 3.127 0 0 1-1.435-1.6 2.294 2.294 0 0 1 .21-1.9c.223-.438.575-.79 1.005-1 .436-.189.92-.227 1.378-.11l-.277-2.94.68.46Zm-1.09 3.16a1.694 1.694 0 0 0-.621.31c-.185.147-.34.33-.455.54a1.877 1.877 0 0 0-.16 1.4c.225.518.614.938 1.101 1.19l1.54.93 1.676-3-1.541-.93a2.294 2.294 0 0 0-1.54-.49v.05ZM9.662 38.31l.43-.45 3.302 3.55-4.785 4.88-3.187-3.44.44-.45 2.709 2.91 1.636-1.73L7.834 41l.459-.46 2.421 2.6 1.78-1.81-2.832-3.02ZM2.55 34.38 2.78 33l.45.07-.258 1.42L4.245 34l.153.44-1.292.46 1.062.94-.306.36-1.024-1-.24 1.42-.459-.09.268-1.42-1.282.48-.144-.39 1.283-.47L1.2 33.8l.316-.36 1.034.94Z"/></g><defs><clipPath id="a"><path fill="#fff" transform="translate(.637)" d="M0 0h65.968v55.46H0z"/></clipPath></defs></svg>
